X: 26782
T: Miller Of Droghan, The
R: reel
M: 4/4
K: Eminor
Bd|eE EE DGB,G|DEGA BAGA|GE EE DGB,G|DEGA BABd|
eE EE DGB,G|DEGA BAGA|GE EE DGB,G|DEGA BdBA||
G2 BG dG (3BAG|Eeef gedB|G2 BG dGBA|GEGA BdBA|
G2 BG dG (3BAG|Eeef gfed|faef deBA|GEGA Bdef||

